src/assets/outline/Chrome.svg

<svg width="24" height="24" viewBox="0 0 24 24"  xmlns="http://www.w3.org/2000/svg">
<path d="M12 22.75C6.07 22.75 1.25 17.93 1.25 12C1.25 6.07 6.07 1.25 12 1.25C17.93 1.25 22.75 6.07 22.75 12C22.75 17.93 17.93 22.75 12 22.75ZM12 2.75C6.9 2.75 2.75 6.9 2.75 12C2.75 17.1 6.9 21.25 12 21.25C17.1 21.25 21.25 17.1 21.25 12C21.25 6.9 17.1 2.75 12 2.75Z" />
<path d="M12 16.75C9.38 16.75 7.25 14.62 7.25 12C7.25 9.38 9.38 7.25 12 7.25C14.62 7.25 16.75 9.38 16.75 12C16.75 14.62 14.62 16.75 12 16.75ZM12 8.75C10.21 8.75 8.75 10.21 8.75 12C8.75 13.79 10.21 15.25 12 15.25C13.79 15.25 15.25 13.79 15.25 12C15.25 10.21 13.79 8.75 12 8.75Z" />
<path d="M21.1698 8.75043C21.1198 8.75043 21.0598 8.74043 21.0098 8.73043C18.0698 8.09043 15.0998 8.09043 12.1598 8.73043C11.7498 8.82043 11.3598 8.56043 11.2698 8.16043C11.1798 7.75043 11.4398 7.36043 11.8398 7.27043C14.9898 6.58043 18.1798 6.58043 21.3298 7.27043C21.7298 7.36043 21.9898 7.76043 21.8998 8.16043C21.8298 8.51043 21.5198 8.75043 21.1698 8.75043Z" />
<path d="M8.53977 14.7503C8.32977 14.7503 8.11977 14.6603 7.96977 14.4903C5.88977 12.1003 4.30977 9.37031 3.25977 6.37031L3.94977 6.06031L4.65977 5.82031L4.67977 5.88031C5.65977 8.69031 7.14977 11.2603 9.10977 13.5103C9.37977 13.8203 9.34977 14.3003 9.03977 14.5703C8.88977 14.6903 8.70977 14.7503 8.53977 14.7503Z" />
<path d="M10.8798 22.6905C10.6998 22.6905 10.5198 22.6305 10.3798 22.5005C10.0698 22.2205 10.0498 21.7505 10.3298 21.4405C12.3298 19.2405 13.8098 16.6905 14.7298 13.8605C14.8598 13.4705 15.2998 13.2105 15.6898 13.3405C16.0798 13.4705 16.3098 13.8505 16.1898 14.2405C15.1798 17.3605 13.5898 20.1005 11.4498 22.4605C11.2898 22.6105 11.0798 22.6905 10.8798 22.6905Z" />
</svg>

<?xml version="1.0" encoding="UTF-8"?>
<svg width="24" height="24" viewBox="0 0 24 24" xmlns="http://www.w3.org/2000/svg">
 <path d="m12 22.75c-5.93 0-10.75-4.82-10.75-10.75s4.82-10.75 10.75-10.75 10.75 4.82 10.75 10.75-4.82 10.75-10.75 10.75zm0-20c-5.1 0-9.25 4.15-9.25 9.25s4.15 9.25 9.25 9.25 9.25-4.15 9.25-9.25-4.15-9.25-9.25-9.25z"/>
 <path d="m12 16.75c-2.62 0-4.75-2.13-4.75-4.75s2.13-4.75 4.75-4.75 4.75 2.13 4.75 4.75-2.13 4.75-4.75 4.75zm0-8c-1.79 0-3.25 1.46-3.25 3.25s1.46 3.25 3.25 3.25 3.25-1.46 3.25-3.25-1.46-3.25-3.25-3.25z"/>
 <path d="m21.17 8.7504c-0.05 0-0.11-0.01-0.16-0.02-2.94-0.64-5.91-0.64-8.85 0-0.41 0.09-0.8-0.17-0.89-0.57-0.09-0.41 0.17-0.8 0.57-0.89 3.15-0.69 6.34-0.69 9.49 0 0.4 0.09 0.66 0.49 0.57 0.89-0.07 0.35-0.38 0.59-0.73 0.59z"/>
 <path d="m8.5398 14.75c-0.21 0-0.42-0.09-0.57-0.26-2.08-2.39-3.66-5.12-4.71-8.12l0.69-0.31 0.71-0.24 0.02 0.06c0.98 2.81 2.47 5.38 4.43 7.63 0.27 0.31 0.24 0.79-0.07 1.06-0.15 0.12-0.33 0.18-0.5 0.18z"/>
 <path d="m10.88 22.69c-0.18 0-0.36-0.06-0.5-0.19-0.31-0.28-0.33-0.75-0.05-1.06 2-2.2 3.48-4.75 4.4-7.58 0.13-0.39 0.57-0.65 0.96-0.52s0.62 0.51 0.5 0.9c-1.01 3.12-2.6 5.86-4.74 8.22-0.16 0.15-0.37 0.23-0.57 0.23z"/>
</svg>
